www/src/assets/star-ornament.svg

<svg width="27" height="27" viewBox="0 0 27 27" xmlns="http://www.w3.org/2000/svg">
  <path d="M26.2222 13.1111C26.2222 10.8309 23.942 9.12077 21.6618 9.12077C18.8116 9.12077 17.1014 6.84058 17.1014 4.56039C16.5314 2.28019 15.3913 0 13.1111 0C10.8309 0 9.12077 2.28019 9.12077 4.56039C9.12077 7.41063 6.84058 9.12077 4.56039 9.12077C2.28019 9.12077 0 10.8309 0 13.1111C0 15.3913 2.28019 17.1014 4.56039 17.1014C7.41063 17.1014 9.12077 19.3816 9.12077 21.6618C9.12077 23.942 10.8309 26.2222 13.1111 26.2222C15.3913 26.2222 17.1014 23.942 17.1014 21.6618C17.1014 19.3816 19.3816 17.1014 21.6618 17.1014C23.942 16.5314 26.2222 15.3913 26.2222 13.1111Z"/>
</svg>

<svg width="27" height="27" viewBox="0 0 27 27" xmlns="http://www.w3.org/2000/svg">
  <path d="M26.222 13.111c0-2.28-2.28-3.99-4.56-3.99-2.85 0-4.56-2.28-4.56-4.56C16.531 2.28 15.391 0 13.111 0 10.83 0 9.12 2.28 9.12 4.56c0 2.85-2.28 4.56-4.56 4.56S0 10.83 0 13.112c0 2.28 2.28 3.99 4.56 3.99 2.85 0 4.56 2.28 4.56 4.56 0 2.281 1.71 4.561 3.991 4.561 2.28 0 3.99-2.28 3.99-4.56s2.28-4.56 4.56-4.56c2.281-.57 4.561-1.71 4.561-3.99z"/>
</svg>
